src/symbols/gender/2640.svg

<?xml version="1.0" encoding="UTF-8"?>
<svg id="emoji" xmlns="http://www.w3.org/2000/svg" viewBox="0 0 72 72">
  <g id="grid">
    <path d="m68,4v64H4V4h64m4-4H0v72h72V0Z" fill="#b3b3b3"/>
    <path d="m12.923,10.9583h46.1539c1.0621,0,1.9231.861,1.9231,1.9231h0v46.1538c0,1.0621-.861,1.9231-1.9231,1.9231H12.9231c-1.0621,0-1.9231-.861-1.9231-1.9231h0V12.8813c0-1.062.861-1.923,1.923-1.923h0Z" fill="none" stroke="#00a5ff" stroke-miterlimit="10" stroke-width=".1"/>
    <rect x="16" y="4" width="40" height="64" rx="2.2537" ry="2.2537" fill="none" stroke="#00a5ff" stroke-miterlimit="10" stroke-width=".1"/>
    <rect x="4" y="16" width="64" height="40" rx="2.2537" ry="2.2537" fill="none" stroke="#00a5ff" stroke-miterlimit="10" stroke-width=".1"/>
    <circle cx="36" cy="36" r="29" fill="none" stroke="#00a5ff" stroke-miterlimit="10" stroke-width=".1"/>
  </g>
  <g id="color">
    <ellipse cx="36.1284" cy="25.9796" rx="10.4786" ry="10.2291" fill="#fff"/>
    <path d="m51,25.9684c0-8.2843-6.7158-15-15-15s-15,6.7157-15,15c0,7.429,5.4133,13.5966,12.5027,14.7909v7.1515l-1.5027-.0003h-6v5h6l1.5027.0002v8.9998l4.9974.0444v-9.0445h1.4999s6,0,6,0v-5h-6l-1.4999-.0002v-7.1493h-.0007c.0506-.0085.1011-.0172.1515-.0262,7.0199-1.2518,12.3491-7.3867,12.3491-14.7664Zm-15,10c-5.5229,0-10-4.4772-10-10s4.4771-10,10-10,10,4.4771,10,10-4.4772,10-10,10Z" fill="#9b9b9a"/>
  </g>
  <g id="line">
    <path d="m38.5001,40.7611v7.1492l1.4999.0002h6v5h-6l-1.4999-.0002v9.0445l-4.9974-.0443v-8.9998l-1.5027-.0002h-6v-5h6l1.5027.0003v-7.1515c-7.0893-1.1943-12.5027-7.362-12.5027-14.7909,0-8.2843,6.7157-15,15-15s15,6.7157,15,15c0,7.3797-5.3292,13.5147-12.3491,14.7665-.0504.009-.1009.0177-.1515.0262" fill="none" stroke="#000" stroke-linecap="round" stroke-linejoin="round" stroke-width="2"/>
    <circle cx="36" cy="25.9684" r="10" fill="none" stroke="#000" stroke-linecap="round" stroke-linejoin="round" stroke-width="2"/>
  </g>
</svg>

<svg id="emoji" viewBox="0 0 72 72" xmlns="http://www.w3.org/2000/svg">
  <g id="grid">
    <path fill="#b3b3b3" d="M68,4V68H4V4H68m4-4H0V72H72V0Z"/>
    <path fill="none" stroke="#00a5ff" stroke-miterlimit="10" stroke-width="0.1" d="M12.923,10.9583H59.0769A1.9231,1.9231,0,0,1,61,12.8814V59.0352a1.9231,1.9231,0,0,1-1.9231,1.9231H12.9231A1.9231,1.9231,0,0,1,11,59.0352V12.8813A1.923,1.923,0,0,1,12.923,10.9583Z"/>
    <rect x="16" y="4" rx="2.2537" width="40" height="64" fill="none" stroke="#00a5ff" stroke-miterlimit="10" stroke-width="0.1"/>
    <rect x="16" y="4" rx="2.2537" width="40" height="64" transform="translate(72) rotate(90)" fill="none" stroke="#00a5ff" stroke-miterlimit="10" stroke-width="0.1"/>
    <circle cx="36" cy="36" r="29" fill="none" stroke="#00a5ff" stroke-miterlimit="10" stroke-width="0.1"/>
  </g>
  <g id="color">
    <path fill="#9B9B9A" stroke="none" d="M51,25.9684c0-8.2843-6.7158-15-15-15c-8.2843,0-15,6.7157-15,15c0,7.429,5.4133,13.5966,12.5027,14.7909 v0.3461v6.8054L32,47.9105h-6v5h6l1.5027,0.0002v8.9998l4.9974,0.0444v-9.0445L40,52.9105h6v-5h-6l-1.4999-0.0002V40.761h-0.0007 c0.0506-0.0085,0.1011-0.0172,0.1515-0.0262C45.6708,39.483,51,33.3481,51,25.9684z M36,35.9684c-5.5229,0-10-4.4772-10-10 c0-5.5229,4.4771-10,10-10c5.5228,0,10,4.4771,10,10C46,31.4912,41.5228,35.9684,36,35.9684z"/>
  </g>
  <g id="hair"/>
  <g id="skin"/>
  <g id="skin-shadow"/>
  <g id="line">
    <path fill="none" stroke="#000000" stroke-linecap="round" stroke-linejoin="round" stroke-miterlimit="10" stroke-width="2" d="M38.5001,40.7611v7.1492L40,47.9105h6v5h-6l-1.4999-0.0002v9.0445l-4.9974-0.0443v-8.9998L32,52.9105h-6v-5h6l1.5027,0.0003 v-6.8054v-0.3461C26.4134,39.565,21,33.3973,21,25.9684c0-8.2843,6.7157-15,15-15s15,6.7157,15,15 c0,7.3797-5.3292,13.5147-12.3491,14.7665c-0.0504,0.009-0.1009,0.0177-0.1515,0.0262"/>
    <circle cx="36" cy="25.9684" r="10" fill="none" stroke="#000000" stroke-linecap="round" stroke-linejoin="round" stroke-miterlimit="10" stroke-width="2"/>
  </g>
</svg>
